X:114
T:Yeo Heave Ho!
M:C|
L:1/8
K:Ab
A2E2|\
A6 AA|(B2d2)(G2B2)|A4|
M:6/8
E2E (dc)B|c3- c2z|E2E (dc)B |c3-c2=3Dd|
e2B (AG)F|B3- B2B|c2F (AF)=3DD|E3-E2E |
e2z  z2 E|c2z z2E|B2z  z2 E |A3-A2z ||
